X: 4
T: Graemsay
S: https://thesession.org/tunes/1396
R: jig
M: 6/8
L: 1/8
K: Dmaj
% ScottC
[A2D2] A BAF|A2B d2e|faa baf|efe edB|
[A2D2] A BAF|A2B d2e|faf edB|d3-d2B:|
|:ABd [B2F2] A|ABd [B2F2] A|faa baf|efe edB|
ABd [B2F2] A|ABd [B2F2] A|faf edB|d3-d3:|

